X: 26628
T: Mickey Joe Mikes
R: jig
M: 6/8
K: Edorian
|:EGA B2A|B2A GEE|DAA DFA|dAB FED|
EGA B2A|B2A GEE|DAA DFA|BAF E3:|
|:EBB EFG|EBB GED|DFA B2A|dAB FED|
EBB EFG|EBB GED|DFA dAB|FED E3|
EBB EFG|EBB GED|DFA B2A|dAB FED|
EGB Bdg|eBF GED|DFA dAB|FED E3||

